rospo-icon-theme-classic-common/24x24/apps/goa-account-google.svg

<svg height="24" viewBox="0 0 24 24" width="24" xmlns="http://www.w3.org/2000/svg"><circle cx="12" cy="12.5" opacity=".2" r="10"/><circle cx="12" cy="12" fill="#d2d2d2" r="10"/><path d="m12.148438 5.5c-2.744899 0-5.1881781 1.5808594-6.3769536 3.8808594l1.6503906 1.1171876-1.65625-1.1171876c-.484694.9399996-.765625 1.9991406-.765625 3.1191406 0 1.16.297194 2.250937.8125 3.210938l2.46875-1.738282a4 4 0 0 1 -.28125-1.472656 4 4 0 0 1  .2675781-1.429688 4 4 0 0 1 3.7324219-2.570312 4 4 0 0 1 2.75 1.1015625l2.091797-2.2265625c-1.214286-1.16-2.856625-1.875-4.693359-1.875zm-.148438 5v3h3.865234c-.04238.169994-.09588.337021-.160156.5-.07325.179187-.159416.352821-.257812.519531-.0022.0038-.0037.008-.0059.01172l-.01172.01563c-.09687.16309-.205214.319082-.324219.466797-.122277.151432-.255443.293737-.398438.425781-.0014.0013-.0025.0027-.0039.0039l-.0078.0059c-.135147.123743-.278873.237732-.429687.341797-.0027.0018-.0051.004-.0078.0059a4 4 0 0 1 -2.257802.703044 4 4 0 0 1 -3.7167969-2.525391l-2.4667969 1.736329c1.2040826 2.25 3.6228473 3.789062 6.3320318 3.789062 1.795918 0 3.402145-.674062 4.611328-1.789062 1.382679-1.280039 2.240234-3.145938 2.240234-5.210938-.01216-.653819-.119299-1.331442-.199219-2h-.816406z" opacity=".1"/><path d="m12 2a10 10 0 0 0 -10 10 10 10 0 0 0  .01075.291 10 10 0 0 1 9.98925-9.791 10 10 0 0 1 9.9895 9.709 10 10 0 0 0  .0105-.209 10 10 0 0 0 -10-10z" fill="#fff" opacity=".2"/><path d="m12 10v3h3.865234c-.04238.169994-.09588.337021-.160156.5-.07325.179187-.159416.352821-.257812.519531-.0022.0038-.0037.008-.0059.01172l-.01172.01563c-.09687.16309-.205214.319082-.324219.466797-.122277.151432-.255443.293737-.398438.425781-.0014.0013-.0025.0027-.0039.0039l-.0078.0059c-.13755.125943-.28374.242112-.4375.347656-.0062.0042-.01139.0095-.01758.01367l2.519532 1.900391c1.382679-1.280038 2.240259-3.145976 2.240259-5.210976-.012159-.653819-.119299-1.331442-.199219-2h-.816406z" fill="#3779d7"/><path d="m12.148438 5c-2.7448985 0-5.1891545 1.579883-6.37793 3.879883l2.4980465 1.69043a4 4 0 0 1 3.7314455-2.570313 4 4 0 0 1 2.75 1.1015625l2.091797-2.2265625c-1.214286-1.16-2.856625-1.875-4.693359-1.875z" fill="#e7453c"/><path d="m5.765625 8.879883c-.484694.94-.765625 2.000117-.765625 3.120117 0 1.16.2962175 2.249961.8115235 3.209961l2.4697265-1.738281a4 4 0 0 1 -.28125-1.47168 4 4 0 0 1  .2685545-1.429687l-.8291015-.560547z" fill="#eead33"/><path d="m8.283203 13.47461-2.466797 1.735351c1.2040825 2.25 3.622848 3.790039 6.332032 3.790039 1.795918 0 3.402144-.675039 4.611327-1.790039l-2.49414-1.918945a4 4 0 0 1 -2.265625.708984 4 4 0 0 1 -3.716797-2.52539z" fill="#359950"/></svg>

<svg xmlns="http://www.w3.org/2000/svg" width="24" height="24" version="1.1" viewBox="0 0 24 24">
 <circle style="opacity:0.2" cx="12" cy="12.5" r="10"/>
 <circle style="fill:#d2d2d2" cx="12" cy="12" r="10"/>
 <path style="opacity:0.1" d="M 12.148438,5.5 C 9.403539,5.5 6.9602599,7.0808594 5.7714844,9.3808594 L 7.421875,10.498047 5.765625,9.3808594 C 5.280931,10.320859 5,11.38 5,12.5 c 0,1.16 0.297194,2.250937 0.8125,3.210938 L 8.28125,13.972656 A 4,4 0 0 1 8,12.5 4,4 0 0 1 8.2675781,11.070312 4,4 0 0 1 12,8.5 4,4 0 0 1 14.75,9.6015625 L 16.841797,7.375 C 15.627511,6.215 13.985172,5.5 12.148438,5.5 Z M 12,10.5 l 0,3 3.865234,0 c -0.04238,0.169994 -0.09588,0.337021 -0.160156,0.5 -0.07325,0.179187 -0.159416,0.352821 -0.257812,0.519531 -0.0022,0.0038 -0.0037,0.008 -0.0059,0.01172 l -0.01172,0.01563 c -0.09687,0.16309 -0.205214,0.319082 -0.324219,0.466797 -0.122277,0.151432 -0.255443,0.293737 -0.398438,0.425781 -0.0014,0.0013 -0.0025,0.0027 -0.0039,0.0039 l -0.0078,0.0059 c -0.135147,0.123743 -0.278873,0.237732 -0.429687,0.341797 -0.0027,0.0018 -0.0051,0.004 -0.0078,0.0059 A 4,4 0 0 1 12,16.5 4,4 0 0 1 8.2832031,13.974609 L 5.8164062,15.710938 C 7.0204888,17.960938 9.4392535,19.5 12.148438,19.5 c 1.795918,0 3.402145,-0.674062 4.611328,-1.789062 C 18.142445,16.430899 19,14.565 19,12.5 c -0.01216,-0.653819 -0.119299,-1.331442 -0.199219,-2 l -0.816406,0 L 12,10.5 Z"/>
 <path style="opacity:0.2;fill:#ffffff" d="M 12,2 A 10,10 0 0 0 2,12 10,10 0 0 0 2.01075,12.291 10,10 0 0 1 12,2.5 10,10 0 0 1 21.9895,12.209 10,10 0 0 0 22,12 10,10 0 0 0 12,2 Z"/>
 <path style="fill:#3779d7" d="m 12,10 0,3 3.865234,0 c -0.04238,0.169994 -0.09588,0.337021 -0.160156,0.5 -0.07325,0.179187 -0.159416,0.352821 -0.257812,0.519531 -0.0022,0.0038 -0.0037,0.008 -0.0059,0.01172 l -0.01172,0.01563 c -0.09687,0.16309 -0.205214,0.319082 -0.324219,0.466797 -0.122277,0.151432 -0.255443,0.293737 -0.398438,0.425781 -0.0014,0.0013 -0.0025,0.0027 -0.0039,0.0039 l -0.0078,0.0059 c -0.13755,0.125943 -0.28374,0.242112 -0.4375,0.347656 -0.0062,0.0042 -0.01139,0.0095 -0.01758,0.01367 l 2.519532,1.900391 C 18.14242,15.930938 19,14.065 19,12 18.987841,11.346181 18.880701,10.668558 18.800781,10 l -0.816406,0 z"/>
 <path style="fill:#e7453c" d="M 12.148438,5 C 9.4035395,5 6.9592835,6.579883 5.770508,8.879883 l 2.4980465,1.69043 A 4,4 0 0 1 12,8 4,4 0 0 1 14.75,9.1015625 L 16.841797,6.875 C 15.627511,5.715 13.985172,5 12.148438,5 Z"/>
 <path style="fill:#eead33" d="M 5.765625,8.879883 C 5.280931,9.819883 5,10.88 5,12 c 0,1.16 0.2962175,2.249961 0.8115235,3.209961 L 8.28125,13.47168 A 4,4 0 0 1 8,12 4,4 0 0 1 8.2685545,10.570313 L 7.439453,10.009766 5.765625,8.879883 Z"/>
 <path style="fill:#359950" d="M 8.283203,13.47461 5.816406,15.209961 C 7.0204885,17.459961 9.439254,19 12.148438,19 c 1.795918,0 3.402144,-0.675039 4.611327,-1.790039 l -2.49414,-1.918945 A 4,4 0 0 1 12,16 4,4 0 0 1 8.283203,13.47461 Z"/>
</svg>
